X: 554
T: Xiang gege
L: 1/8
M: 2/4
K: A
B2F A [I:setbarnb 1]| 
BB2d/ e/ | 
f fe2 | 
e fd2 | 
d B F A | 
B2d F | 
E2F/ E/ D | 
E4 |]

@@@ Tune index: 9428
